X: 41956
T: Walking The Floor
R: jig
M: 6/8
K: Adorian
|:AGA e2d|efg edB|GFG d2G|Bge dBG|
AGA e2d|efg edB|GFG edB|BAG A3:|
|:aga e2d|gee edB|gfg d2B|Gge dBG|
aga e2d|gee edB|GFG edB|BAG A3:|

